packages/fxa-payments-server/src/images/amex.svg

<svg width="38" height="24" viewBox="0 0 38 24" fill="none" xmlns="http://www.w3.org/2000/svg">
<g clip-path="url(#clip0)">
<path d="M2.24007 0.00100708H35.8401C36.9005 0.00100708 37.7601 0.860639 37.7601 1.92101V22.081C37.7601 23.1414 36.9005 24.001 35.8401 24.001H2.24007C1.1797 24.001 0.320068 23.1414 0.320068 22.081V1.92101C0.320068 0.860639 1.1797 0.00100708 2.24007 0.00100708Z" fill="#2557D6"/>
<path d="M0.332149 11.3131H2.12932L2.53453 10.3766H3.44173L3.84589 11.3131H7.38196V10.5972L7.6976 11.3162H9.53327L9.84892 10.5865V11.3132H18.6368L18.6327 9.77593H18.8027C18.9217 9.77991 18.9565 9.79042 18.9565 9.97877V11.3132H23.5016V10.9553C23.8682 11.1435 24.4384 11.3132 25.1887 11.3132H27.1008L27.51 10.3767H28.4172L28.8174 11.3132H32.5021V10.4236L33.0601 11.3132H36.0129V5.43269H33.0906V6.12716L32.6816 5.43269H29.6829V6.12716L29.3072 5.43269H25.257C24.5791 5.43269 23.9831 5.52337 23.5017 5.77604V5.43269H20.7067V5.77604C20.4003 5.51559 19.9829 5.43269 19.5187 5.43269H9.30714L8.62199 6.95146L7.91836 5.43269H4.70212V6.12716L4.34874 5.43269H1.60578L0.331909 8.2285V11.313H0.332053L0.332149 11.3131ZM11.6765 10.465H10.5982L10.5942 7.16285L9.06901 10.4649H8.14549L6.61631 7.15993V10.4649H4.47695L4.07279 9.5245H1.88269L1.47445 10.4649H0.332005L2.21557 6.24874H3.7784L5.56732 10.2406V6.24874H7.28408L8.66063 9.10892L9.92514 6.24874H11.6764L11.6765 10.465ZM3.71327 8.64946L2.99336 6.96865L2.27744 8.64946H3.71327ZM15.9677 10.4649H12.4539V6.24869H15.9677V7.12666H13.5058V7.88665H15.9087V8.75089H13.5057V9.5929H15.9676L15.9677 10.4649ZM20.9193 7.38423C20.9193 8.05642 20.4511 8.40375 20.1783 8.50801C20.4084 8.59191 20.605 8.74023 20.6986 8.86306C20.8471 9.07277 20.8727 9.26007 20.8727 9.63663V10.4649H19.8117L19.8078 9.93317C19.8078 9.67949 19.8331 9.31465 19.6418 9.1118C19.4881 8.96348 19.2538 8.93132 18.8751 8.93132H17.746V10.4649H16.6941V6.24869H19.1133C19.6509 6.24869 20.047 6.26228 20.387 6.45063C20.7198 6.63898 20.9193 6.91393 20.9193 7.38423ZM19.5898 8.01025C19.4452 8.09434 19.2743 8.09713 19.0694 8.09713H17.7917V7.16065H19.0868C19.2701 7.16065 19.4614 7.16852 19.5857 7.23668C19.7221 7.29812 19.8065 7.42882 19.8065 7.6094C19.8065 7.79372 19.7262 7.94199 19.5898 8.01025ZM22.6063 10.4649H21.5331V6.24869H22.6063V10.4649ZM35.0652 10.4649H33.5746L31.581 7.30037V10.4649H29.4388L29.0295 9.52445H26.8445L26.4475 10.4649H25.2164C24.7053 10.4649 24.0578 10.3565 23.6913 9.99855C23.3217 9.64057 23.1293 9.15567 23.1293 8.38897C23.1293 7.76367 23.2443 7.19204 23.6963 6.74031C24.0364 6.40383 24.5689 6.24869 25.2937 6.24869H26.3121V7.1521H25.315C24.9312 7.1521 24.7144 7.20682 24.5057 7.40185C24.3264 7.5794 24.2034 7.91497 24.2034 8.3569C24.2034 8.80858 24.297 9.13431 24.4925 9.34705C24.6544 9.51389 24.9488 9.56449 25.2255 9.56449H25.6979L27.1804 6.24884H28.7565L30.5373 10.2367V6.24889H32.1389L33.9878 9.18524V6.24889H35.0652V10.4649ZM28.6716 8.64951L27.9437 6.96869L27.2198 8.64951H28.6716ZM37.7455 17.1974C37.4901 17.5553 36.9922 17.7368 36.3182 17.7368H34.2869V16.8325H36.3099C36.5106 16.8325 36.651 16.8072 36.7356 16.7281C36.8155 16.6573 36.8606 16.5575 36.86 16.4531C36.86 16.3301 36.8089 16.2326 36.7315 16.1741C36.6551 16.1097 36.5441 16.0805 36.3608 16.0805C35.3732 16.0484 34.1411 16.1097 34.1411 14.7752C34.1411 14.1636 34.5464 13.5197 35.6502 13.5197H37.7453V12.6807H35.7986C35.2112 12.6807 34.7844 12.8156 34.4822 13.0251V12.6807H31.6029C31.1423 12.6807 30.6019 12.7901 30.3463 13.0251V12.6807H25.2045V13.0251C24.7954 12.7423 24.105 12.6807 23.7862 12.6807H20.3947V13.0251C20.0709 12.7247 19.3511 12.6807 18.9122 12.6807H15.1165L14.248 13.5814L13.4344 12.6807H7.76418V18.565H13.3274L14.2224 17.65L15.0655 18.565L18.4947 18.5679V17.1837H18.8317C19.2867 17.1904 19.8234 17.1728 20.2968 16.9767V18.5648H23.1254V17.0311H23.2618C23.4359 17.0311 23.4531 17.038 23.4531 17.2046V18.5646H32.0456C32.591 18.5646 33.1613 18.4309 33.4771 18.1881V18.5646H36.2025C36.7697 18.5646 37.3235 18.4885 37.745 18.2935L37.7451 17.1972L37.7455 17.1974ZM20.7084 14.9339C20.7084 16.1054 19.7961 16.3473 18.8768 16.3473H17.5643V17.7618H15.5199L14.2247 16.3657L12.8787 17.7618H8.71218V13.5445H12.9427L14.2368 14.9269L15.5748 13.5445H18.9358C19.7705 13.5445 20.7084 13.766 20.7084 14.9339ZM12.3458 16.8747H9.75968V16.0357H12.069V15.1753H9.75968V14.4085H12.3968L13.5473 15.6375L12.3458 16.8747ZM16.5127 17.3576L14.8978 15.6397L16.5127 13.9766V17.3576ZM18.901 15.4825H17.5418V14.4085H18.9132C19.293 14.4085 19.5566 14.5568 19.5566 14.9256C19.5566 15.2903 19.3052 15.4825 18.901 15.4825ZM26.0223 13.5445H29.5329V14.4167H27.0698V15.1834H29.4728V16.0439H27.0698V16.8829L29.5329 16.8867V17.7618H26.0222L26.0223 13.5445ZM24.6726 15.8019C24.9068 15.8847 25.0981 16.0331 25.1878 16.1559C25.3364 16.3619 25.3579 16.5541 25.3621 16.9257V17.7618H24.306V17.2342C24.306 16.9804 24.3315 16.6048 24.136 16.4087C23.9824 16.2576 23.748 16.2215 23.3644 16.2215H22.2402V17.7618H21.1833V13.5446H23.6118C24.1442 13.5446 24.5321 13.5672 24.8773 13.7436C25.2093 13.9358 25.4181 14.199 25.4181 14.6801C25.4181 15.3532 24.9494 15.6967 24.6726 15.8019ZM24.0781 15.2688C23.9374 15.3488 23.7634 15.3557 23.5589 15.3557H22.281V14.4086H23.5761C23.7634 14.4086 23.9509 14.4124 24.0781 14.4848C24.2145 14.5531 24.296 14.6838 24.296 14.8641C24.296 15.0445 24.2144 15.1898 24.0781 15.2688ZM33.5735 15.5375C33.7785 15.7405 33.8881 15.9969 33.8881 16.4309C33.8881 17.3381 33.2966 17.7616 32.2357 17.7616H30.187V16.8573H32.2275C32.4271 16.8573 32.5685 16.8321 32.6571 16.7529C32.7295 16.6877 32.7814 16.5929 32.7814 16.4779C32.7814 16.3549 32.7252 16.2575 32.653 16.1989C32.5726 16.1346 32.4617 16.1054 32.2785 16.1054C31.2948 16.0732 30.0629 16.1346 30.0629 14.8002C30.0629 14.1885 30.464 13.5446 31.5668 13.5446H33.6755V14.4422H31.746C31.5548 14.4422 31.4304 14.4492 31.3246 14.5184C31.2094 14.5866 31.1667 14.688 31.1667 14.8217C31.1667 14.9808 31.2645 15.089 31.3968 15.1359C31.5078 15.1729 31.627 15.1837 31.8061 15.1837L32.3723 15.1983C32.9433 15.2116 33.3353 15.3062 33.5735 15.5375ZM37.7473 14.4085H35.8303C35.639 14.4085 35.5117 14.4154 35.4047 14.4847C35.2937 14.553 35.251 14.6543 35.251 14.7881C35.251 14.9472 35.3446 15.0554 35.481 15.1022C35.5919 15.1393 35.7111 15.1501 35.8863 15.1501L36.4564 15.1646C37.0316 15.1783 37.4156 15.273 37.6497 15.5041C37.6925 15.5363 37.718 15.5724 37.7473 15.6085V14.4085H37.7473Z" fill="white"/>
</g>
<defs>
<clipPath id="clip0">
<rect x="0.320068" width="37.44" height="24" fill="white"/>
</clipPath>
</defs>
</svg>

<svg width="38" height="24" fill="none" xmlns="http://www.w3.org/2000/svg"><g clip-path="url(#clip0)"><path d="M2.24.001h33.6c1.06 0 1.92.86 1.92 1.92v20.16c0 1.06-.86 1.92-1.92 1.92H2.24a1.92 1.92 0 01-1.92-1.92V1.921c0-1.06.86-1.92 1.92-1.92z" fill="#2557D6"/><path d="M.332 11.313H2.13l.406-.936h.907l.404.936h3.536v-.716l.316.72h1.835l.316-.73v.726h8.788l-.004-1.537h.17c.119.004.153.014.153.203v1.334h4.546v-.358c.366.188.936.358 1.687.358H27.1l.409-.936h.907l.4.936h3.685v-.89l.558.89h2.953v-5.88H33.09v.694l-.41-.694h-2.998v.694l-.376-.694h-4.05c-.678 0-1.274.09-1.755.343v-.343h-2.795v.343c-.307-.26-.724-.343-1.188-.343H9.307L8.622 6.95l-.704-1.518H4.702v.694l-.353-.694H1.606L.332 8.229v3.084zm11.345-.848h-1.079l-.004-3.302-1.525 3.302h-.924L6.616 7.16v3.305H4.477l-.404-.94h-2.19l-.409.94H.332l1.884-4.216h1.562l1.79 3.992V6.249h1.716l1.377 2.86 1.264-2.86h1.751v4.216zM3.713 8.649l-.72-1.68-.716 1.68h1.436zm12.255 1.816h-3.514V6.249h3.514v.878h-2.462v.76h2.403v.864h-2.403v.842h2.462v.872zm4.951-3.08c0 .671-.468 1.019-.74 1.123.23.084.426.232.52.355.148.21.174.397.174.774v.828h-1.061l-.004-.532c0-.254.025-.618-.166-.821-.154-.149-.388-.18-.767-.18h-1.129v1.533h-1.052V6.249h2.42c.537 0 .933.013 1.273.202.333.188.532.463.532.933zm-1.33.625c-.144.084-.315.087-.52.087h-1.277v-.936h1.295c.183 0 .374.008.499.076.136.061.22.192.22.372 0 .185-.08.333-.216.401zm3.017 2.455h-1.073V6.249h1.073v4.216zm12.46 0h-1.491L31.58 7.3v3.165h-2.142l-.41-.94h-2.184l-.397.94h-1.232c-.51 0-1.158-.108-1.525-.466-.37-.358-.562-.843-.562-1.61 0-.625.115-1.197.567-1.649.34-.336.873-.491 1.598-.491h1.018v.903h-.997c-.384 0-.6.055-.81.25-.179.177-.302.513-.302.955 0 .452.094.777.29.99.161.167.456.217.733.217h.472L27.18 6.25h1.576l1.781 3.988V6.249h1.602l1.849 2.936V6.25h1.077v4.216zM28.671 8.65l-.728-1.681-.724 1.68h1.452zm9.073 8.547c-.255.358-.753.54-1.427.54h-2.031v-.904h2.023c.2 0 .341-.026.426-.105.08-.07.125-.17.124-.275a.34.34 0 00-.129-.279c-.076-.064-.187-.093-.37-.093-.988-.033-2.22.029-2.22-1.306 0-.611.405-1.255 1.51-1.255h2.094v-.84H35.8c-.588 0-1.015.136-1.317.345v-.344h-2.88c-.46 0-1 .11-1.256.344v-.344h-5.142v.344c-.409-.283-1.099-.344-1.418-.344h-3.391v.344c-.324-.3-1.044-.344-1.483-.344h-3.795l-.869.9-.814-.9h-5.67v5.884h5.563l.895-.915.844.915 3.429.003v-1.384h.337c.455.006.991-.011 1.465-.207v1.588h2.828V17.03h.137c.174 0 .191.007.191.174v1.36h8.593c.545 0 1.115-.134 1.431-.377v.377h2.726c.567 0 1.12-.077 1.542-.271v-1.097zm-17.037-2.263c0 1.171-.912 1.413-1.831 1.413h-1.313v1.415H15.52l-1.295-1.396-1.346 1.396H8.712v-4.218h4.23l1.295 1.383 1.338-1.383h3.36c.835 0 1.773.222 1.773 1.39zm-8.362 1.94H9.76v-.838h2.309v-.86h-2.31v-.768h2.638l1.15 1.23-1.201 1.237zm4.167.484l-1.615-1.718 1.615-1.663v3.38zm2.388-1.876h-1.36V14.41h1.372c.38 0 .644.148.644.517 0 .364-.252.556-.656.556zm7.121-1.938h3.51v.873H27.07v.766h2.403v.86H27.07v.84l2.463.004v.875h-3.51v-4.218zm-1.35 2.258c.235.083.426.231.516.354.148.206.17.398.174.77v.836h-1.056v-.528c0-.254.025-.63-.17-.825-.154-.151-.388-.188-.772-.188H22.24v1.54h-1.057v-4.216h2.429c.532 0 .92.022 1.265.199.332.192.541.455.541.936 0 .673-.469 1.017-.745 1.122zm-.594-.533c-.14.08-.315.087-.52.087h-1.277v-.947h1.295c.187 0 .375.003.502.076.137.068.218.199.218.38a.45.45 0 01-.218.404zm9.496.268c.205.204.314.46.314.894 0 .907-.591 1.33-1.652 1.33h-2.049v-.904h2.04c.2 0 .342-.025.43-.104a.367.367 0 00-.004-.554c-.08-.064-.191-.094-.374-.094-.984-.032-2.216.03-2.216-1.305 0-.612.401-1.255 1.504-1.255h2.108v.897h-1.929c-.191 0-.316.007-.421.076-.116.069-.158.17-.158.304 0 .159.098.267.23.314.11.037.23.048.41.048l.565.014c.571.014.963.108 1.202.34zm4.173-1.129H35.83c-.191 0-.318.007-.425.077-.111.068-.154.17-.154.303 0 .16.094.267.23.314.11.037.23.048.405.048l.57.015c.576.013.96.108 1.194.34.043.031.068.067.097.103v-1.2z" fill="#fff"/></g><defs><clipPath id="clip0"><path fill="#fff" d="M.32 0h37.44v24H.32z"/></clipPath></defs></svg>
